src/assets/images/icons/Twitter.svg

<svg xmlns="http://www.w3.org/2000/svg" width="16" height="16" viewBox="0 0 16 16">
  <path fill="#222222" fill-rule="evenodd" d="M5.375,14.9856279 C3.125,15.1169563 1.5,14.3289856 0,13.4096865 C1.625,13.6723434 3.75,13.0157012 4.875,11.9650736 C3.25,11.8337452 2.25,10.9144461 1.75,9.46983315 C2.25,9.6011616 2.75,9.46983315 3.125,9.46983315 C1.625,8.94451937 0.625,8.02522025 0.5,5.92396512 C0.875,6.18662201 1.375,6.31795046 1.875,6.31795046 C0.75,5.66130823 -1.11022302e-15,3.16606776 0.875,1.59012641 C2.5,3.42872465 4.5,5.004666 7.75,5.26732289 C6.875,1.59012641 11.625,-0.379800279 13.5,2.11544019 C14.375,1.98411174 15,1.59012641 15.625,1.32746952 C15.375,2.24676864 14.875,2.77208242 14.25,3.2973962 C14.875,3.16606776 15.5,3.03473931 16,2.77208242 C15.875,3.42872465 15.25,3.95403843 14.625,4.47935221 C14.5,10.5204607 10.875,14.722971 5.375,14.9856279 Z"/>
</svg>

<svg xmlns="http://www.w3.org/2000/svg" width="16" height="16" viewBox="0 0 16 16"><path fill-rule="evenodd" d="M5.375 14.986C3.125 15.117 1.5 14.329 0 13.41c1.625.262 3.75-.394 4.875-1.445-1.625-.131-2.625-1.05-3.125-2.495.5.131 1 0 1.375 0C1.625 8.945.625 8.025.5 5.924c.375.263.875.394 1.375.394C.75 5.661 0 3.166.875 1.59 2.5 3.43 4.5 5.005 7.75 5.267 6.875 1.59 11.625-.38 13.5 2.115c.875-.13 1.5-.525 2.125-.788-.25.92-.75 1.445-1.375 1.97.625-.13 1.25-.262 1.75-.525-.125.657-.75 1.182-1.375 1.707-.125 6.041-3.75 10.244-9.25 10.507z"/></svg>
